assets/icons/webflow.svg

<svg width="18" height="19" viewBox="0 0 18 19" fill="none" xmlns="http://www.w3.org/2000/svg">
<path fill-rule="evenodd" clip-rule="evenodd" d="M2 0.482216C0.895431 0.482216 0 1.37765 0 2.48222L0 16.4822C0 17.5868 0.89543 18.4822 2 18.4822L16 18.4822C17.1046 18.4822 18 17.5868 18 16.4822L18 2.48222C18 1.37765 17.1046 0.482216 16 0.482216L2 0.482216Z" fill="white"/>
<path fill-rule="evenodd" clip-rule="evenodd" d="M2 0.482216C0.895431 0.482216 0 1.37765 0 2.48222L0 16.4822C0 17.5868 0.89543 18.4822 2 18.4822L16 18.4822C17.1046 18.4822 18 17.5868 18 16.4822L18 2.48222C18 1.37765 17.1046 0.482216 16 0.482216L2 0.482216ZM12.401 7.82544C12.401 7.82544 11.428 10.7643 11.3485 11.007C11.1035 9.16515 10.8561 7.32354 10.6065 5.48222C8.9485 5.48222 8.062 6.61868 7.5935 7.81822L6.311 11.0143C6.3035 10.7851 6.131 7.85289 6.131 7.85289C6.029 6.3832 4.631 5.48848 3.5 5.48848L4.8695 13.4822C6.6065 13.475 7.543 12.3453 8.0335 11.1457C8.0335 11.1457 9.0785 8.54632 9.1215 8.42834C9.129 8.5391 9.8715 13.4817 9.8715 13.4817C11.6155 13.4817 12.5525 12.4214 13.0565 11.2637L15.5 5.48896C13.7775 5.48896 12.8695 6.61916 12.401 7.82544Z" fill="#4353FF"/>
</svg>

<svg width="18" height="19" viewBox="0 0 18 19" fill="none" xmlns="http://www.w3.org/2000/svg"><path fill-rule="evenodd" clip-rule="evenodd" d="M2 .482a2 2 0 0 0-2 2v14a2 2 0 0 0 2 2h14a2 2 0 0 0 2-2v-14a2 2 0 0 0-2-2H2z" fill="white"/><path fill-rule="evenodd" clip-rule="evenodd" d="M2 .482a2 2 0 0 0-2 2v14a2 2 0 0 0 2 2h14a2 2 0 0 0 2-2v-14a2 2 0 0 0-2-2H2zm10.4 7.343-1.051 3.182a2237.06 2237.06 0 0 0-.744-5.525c-1.658 0-2.544 1.137-3.012 2.336L6.31 11.014c-.006-.229-.18-3.161-.18-3.161-.1-1.47-1.5-2.365-2.63-2.365l1.37 7.994c1.737-.007 2.673-1.137 3.163-2.336 0 0 1.045-2.6 1.089-2.718.007.111.75 5.054.75 5.054 1.744 0 2.68-1.06 3.185-2.218L15.5 5.489c-1.722 0-2.63 1.13-3.1 2.335z" fill="#4353FF"/></svg>
